public/wishlist.svg

<svg width="25" height="23" viewBox="0 0 25 23" fill="none" xmlns="http://www.w3.org/2000/svg">
<path d="M18.3817 0.570007C17.2557 0.587517 16.1542 0.901857 15.1885 1.48128C14.2228 2.0607 13.4271 2.88468 12.8817 3.87001C12.3364 2.88468 11.5407 2.0607 10.575 1.48128C9.60934 0.901857 8.50785 0.587517 7.3818 0.570007C5.58674 0.647997 3.8955 1.43326 2.67758 2.75424C1.45966 4.07522 0.814043 5.82453 0.881794 7.62001C0.881794 14.395 11.8377 22.22 12.3037 22.552L12.8817 22.961L13.4597 22.552C13.9257 22.222 24.8817 14.395 24.8817 7.62001C24.9495 5.82453 24.3039 4.07522 23.086 2.75424C21.868 1.43326 20.1768 0.647997 18.3817 0.570007ZM12.8817 20.499C9.6288 18.069 2.8818 12.099 2.8818 7.62001C2.81344 6.35472 3.24817 5.11374 4.09116 4.16771C4.93416 3.22168 6.11703 2.64736 7.3818 2.57001C8.64657 2.64736 9.82944 3.22168 10.6724 4.16771C11.5154 5.11374 11.9501 6.35472 11.8817 7.62001H13.8817C13.8134 6.35472 14.2481 5.11374 15.0911 4.16771C15.9341 3.22168 17.117 2.64736 18.3817 2.57001C19.6465 2.64736 20.8294 3.22168 21.6724 4.16771C22.5154 5.11374 22.9501 6.35472 22.8817 7.62001C22.8817 12.101 16.1347 18.069 12.8817 20.499Z" fill="#253D4E"/>
</svg>

<svg xmlns="http://www.w3.org/2000/svg" width="25" height="23" fill="none"><path fill="#253D4E" d="M18.382.57a6.4 6.4 0 0 0-5.5 3.3 6.4 6.4 0 0 0-5.5-3.3 6.8 6.8 0 0 0-6.5 7.05c0 6.775 10.956 14.6 11.422 14.932l.578.409.578-.409c.466-.33 11.422-8.157 11.422-14.932a6.8 6.8 0 0 0-6.5-7.05m-5.5 19.929c-3.253-2.43-10-8.4-10-12.879a4.8 4.8 0 0 1 4.5-5.05 4.8 4.8 0 0 1 4.5 5.05h2a4.8 4.8 0 0 1 4.5-5.05 4.8 4.8 0 0 1 4.5 5.05c0 4.481-6.747 10.449-10 12.879"/></svg>
